img/Meta_Platforms_Inc._logo 1.svg

<svg width="159" height="32" viewBox="0 0 159 32" fill="none" xmlns="http://www.w3.org/2000/svg">
<g clip-path="url(#clip0_98_1267)">
<path d="M5.20943 21.1032C5.20943 22.9428 5.61364 24.3552 6.14196 25.2096C6.83465 26.3288 7.86782 26.8029 8.92111 26.8029C10.2797 26.8029 11.5225 26.4662 13.9175 23.1573C15.8363 20.5051 18.0972 16.7824 19.6184 14.4486L22.1946 10.4947C23.9842 7.74869 26.0555 4.69613 28.4305 2.62702C30.3693 0.93822 32.4608 0 34.5657 0C38.0996 0 41.4658 2.04565 44.042 5.8823C46.8614 10.0842 48.23 15.3768 48.23 20.8385C48.23 24.0854 47.5893 26.4712 46.4991 28.356C45.4458 30.1788 43.3929 32 39.9395 32V26.8029C42.8965 26.8029 43.6344 24.0888 43.6344 20.9826C43.6344 16.5562 42.6013 11.644 40.3253 8.13403C38.7101 5.6444 36.617 4.12314 34.3141 4.12314C31.8235 4.12314 29.8192 5.99958 27.5667 9.34534C26.3692 11.1229 25.1398 13.2892 23.7594 15.7336L22.2399 18.4226C19.1873 23.8291 18.4141 25.0605 16.8879 27.0928C14.2127 30.6513 11.9284 32 8.92111 32C5.35367 32 3.09782 30.457 1.7007 28.1315C0.56019 26.2367 0 23.7504 0 20.9173L5.20943 21.1032Z" fill="#FAD9C4"/>
<path d="M4.10742 6.24921C6.49578 2.57173 9.94245 0 13.8956 0C16.185 0 18.461 0.676859 20.8376 2.61529C23.4373 4.73466 26.2081 8.2245 29.6648 13.9761L30.9043 16.0402C33.8964 21.0195 35.5988 23.5812 36.5951 24.7891C37.8765 26.3405 38.7738 26.8029 39.9394 26.8029C42.8964 26.8029 43.6344 24.0888 43.6344 20.9826L48.2299 20.8385C48.2299 24.0854 47.5892 26.4712 46.499 28.356C45.4457 30.1788 43.3928 32 39.9394 32C37.7926 32 35.8906 31.5342 33.7874 29.5523C32.1706 28.031 30.2804 25.3286 28.8262 22.8993L24.5007 15.6817C22.3304 12.0595 20.3395 9.35874 19.1873 8.13571C17.9478 6.82052 16.3544 5.23225 13.8118 5.23225C11.7538 5.23225 10.0062 6.67476 8.54366 8.88126L4.10742 6.24921Z" fill="#FAD9C4"/>
<path d="M13.8119 5.23225C11.7539 5.23225 10.0063 6.67476 8.54373 8.88126C6.47573 11.9992 5.20943 16.6434 5.20943 21.1032C5.20943 22.9428 5.61364 24.3552 6.14196 25.2096L1.7007 28.1315C0.56019 26.2367 0 23.7504 0 20.9173C0 15.7654 1.41557 10.3958 4.1075 6.24921C6.49585 2.57173 9.94253 0 13.8957 0L13.8119 5.23225Z" fill="#FAD9C4"/>
<path d="M58.3569 1.01196H64.3832L74.6293 19.5284L84.8771 1.01196H90.7725V31.4371H85.8566V8.11898L76.87 24.2664H72.2577L63.2729 8.11898V31.4371H58.3569V1.01196ZM106.176 12.356C102.651 12.356 100.527 15.0065 100.019 18.2886H111.984C111.738 14.9077 109.785 12.356 106.176 12.356ZM95.145 20.1583C95.145 13.2524 99.6131 8.2262 106.262 8.2262C112.801 8.2262 116.706 13.1887 116.706 20.5269V21.8756H100.019C100.611 25.4459 102.983 27.8518 106.807 27.8518C109.858 27.8518 111.765 26.9219 113.573 25.2214L116.184 28.4164C113.723 30.6765 110.594 31.9799 106.632 31.9799C99.4353 31.9799 95.145 26.7376 95.145 20.1583ZM122.666 12.7916H118.141V8.77071H122.666V2.12107H127.41V8.77071H134.284V12.7916H127.41V22.9831C127.41 26.4629 128.523 27.6993 131.26 27.6993C132.51 27.6993 133.226 27.5921 134.284 27.4162V31.3935C132.966 31.7655 131.708 31.9364 130.346 31.9364C125.226 31.9364 122.666 29.1418 122.666 23.5477V12.7916ZM154.257 16.702C153.304 14.2995 151.179 12.5303 148.056 12.5303C143.997 12.5303 141.399 15.4069 141.399 20.093C141.399 24.6618 143.791 27.6775 147.862 27.6775C151.062 27.6775 153.346 25.8178 154.257 23.5041V16.702ZM159 31.4371H154.344V28.2639C153.042 30.132 150.674 31.9799 146.838 31.9799C140.67 31.9799 136.547 26.8214 136.547 20.093C136.547 13.301 140.769 8.2262 147.1 8.2262C150.23 8.2262 152.685 9.47605 154.344 11.6825V8.77071H159V31.4371Z" fill="#FAD9C4"/>
</g>
<defs>
<clipPath id="clip0_98_1267">
<rect width="159" height="32" fill="white"/>
</clipPath>
</defs>
</svg>

<svg xmlns="http://www.w3.org/2000/svg" width="159" height="32" fill="none"><g fill="#FAD9C4" clip-path="url(#a)"><path d="M5.21 21.103c0 1.84.404 3.252.932 4.107.693 1.119 1.726 1.593 2.78 1.593 1.358 0 2.6-.337 4.996-3.646 1.918-2.652 4.18-6.375 5.7-8.708l2.577-3.954c1.79-2.746 3.86-5.799 6.235-7.868C30.37.938 32.46 0 34.567 0c3.534 0 6.9 2.046 9.476 5.882 2.82 4.202 4.188 9.495 4.188 14.956 0 3.247-.64 5.633-1.73 7.518C45.445 30.179 43.392 32 39.94 32v-5.197c2.957 0 3.694-2.714 3.694-5.82 0-4.427-1.033-9.339-3.309-12.849-1.615-2.49-3.708-4.01-6.01-4.01-2.491 0-4.496 1.876-6.748 5.221-1.198 1.778-2.427 3.944-3.808 6.389l-1.52 2.689c-3.052 5.406-3.825 6.638-5.351 8.67C14.213 30.65 11.928 32 8.92 32c-3.567 0-5.823-1.543-7.22-3.869C.56 26.238 0 23.752 0 20.917z"/><path d="M4.107 6.25C6.496 2.571 9.942 0 13.896 0c2.289 0 4.565.677 6.942 2.615 2.6 2.12 5.37 5.61 8.827 11.361l1.24 2.064c2.991 4.98 4.694 7.541 5.69 8.75 1.282 1.55 2.179 2.013 3.344 2.013 2.957 0 3.695-2.714 3.695-5.82l4.596-.145c0 3.247-.64 5.633-1.731 7.518C45.446 30.179 43.393 32 39.939 32c-2.146 0-4.048-.466-6.152-2.448-1.616-1.521-3.507-4.223-4.96-6.653L24.5 15.682c-2.17-3.623-4.161-6.323-5.314-7.546-1.24-1.315-2.833-2.904-5.375-2.904-2.058 0-3.806 1.443-5.268 3.65z"/><path d="M13.812 5.232c-2.058 0-3.806 1.443-5.268 3.65-2.068 3.117-3.335 7.761-3.335 12.221 0 1.84.405 3.252.933 4.107L1.701 28.13C.56 26.238 0 23.752 0 20.917 0 15.765 1.416 10.396 4.108 6.25 6.496 2.572 9.942 0 13.896 0zM58.357 1.012h6.026L74.63 19.528 84.877 1.012h5.895v30.425h-4.915V8.12L76.87 24.266h-4.612L63.273 8.12v23.318h-4.916zm47.819 11.344c-3.525 0-5.649 2.65-6.157 5.933h11.965c-.246-3.381-2.199-5.933-5.808-5.933m-11.031 7.802c0-6.906 4.468-11.932 11.117-11.932 6.539 0 10.444 4.963 10.444 12.3v1.35h-16.687c.592 3.57 2.964 5.976 6.788 5.976 3.051 0 4.958-.93 6.766-2.63l2.611 3.194c-2.461 2.26-5.59 3.564-9.552 3.564-7.197 0-11.487-5.242-11.487-11.822m27.521-7.366h-4.525V8.77h4.525V2.12h4.744v6.65h6.874v4.02h-6.874v10.192c0 3.48 1.113 4.716 3.85 4.716 1.25 0 1.966-.107 3.024-.283v3.977a14.1 14.1 0 0 1-3.938.543q-7.68.002-7.68-8.388zm31.591 3.91c-.953-2.403-3.078-4.172-6.201-4.172-4.059 0-6.657 2.877-6.657 7.563 0 4.569 2.392 7.584 6.463 7.584 3.2 0 5.484-1.86 6.395-4.173zM159 31.437h-4.656v-3.173c-1.302 1.868-3.67 3.716-7.506 3.716-6.168 0-10.291-5.159-10.291-11.887 0-6.792 4.222-11.867 10.553-11.867 3.13 0 5.585 1.25 7.244 3.456V8.772H159z"/></g><defs><clipPath id="a"><path fill="#fff" d="M0 0h159v32H0z"/></clipPath></defs></svg>
